fs/person_48_regular.svg

<svg viewBox="0 0 48 48" fill="none" xmlns="http://www.w3.org/2000/svg" height="1em" width="1em">
  <path d="M24 4C18.4772 4 14 8.47715 14 14C14 19.5228 18.4772 24 24 24C29.5228 24 34 19.5228 34 14C34 8.47715 29.5228 4 24 4ZM16.5 14C16.5 9.85786 19.8579 6.5 24 6.5C28.1421 6.5 31.5 9.85786 31.5 14C31.5 18.1421 28.1421 21.5 24 21.5C19.8579 21.5 16.5 18.1421 16.5 14ZM12.2499 28C9.90326 28 8.00002 29.9013 8 32.2489L8 33C8 36.7555 9.94167 39.5669 12.9202 41.3802C15.8491 43.1633 19.7861 44 24 44C28.2139 44 32.1509 43.1633 35.0798 41.3802C38.0583 39.5669 40 36.7555 40 33L40 32.2487C40 29.9011 38.0967 28 35.7502 28H12.2499ZM10.5 32.2489C10.5 31.283 11.283 30.5 12.2499 30.5H35.7502C36.7171 30.5 37.5 31.2829 37.5 32.2488L37.5 33C37.5 35.7444 36.1398 37.8081 33.7798 39.2448C31.3703 40.7117 27.9323 41.5 24 41.5C20.0677 41.5 16.6297 40.7117 14.2202 39.2448C11.8602 37.8081 10.5 35.7444 10.5 33L10.5 32.2489Z" fill="#212121"/>
</svg>

<svg viewBox="0 0 48 48" fill="none" xmlns="http://www.w3.org/2000/svg" height="1em" width="1em">
  <path d="M24 4c-5.523 0-10 4.477-10 10s4.477 10 10 10 10-4.477 10-10S29.523 4 24 4Zm-7.5 10a7.5 7.5 0 1 1 15 0 7.5 7.5 0 0 1-15 0Zm-4.25 14A4.25 4.25 0 0 0 8 32.249V33c0 3.755 1.942 6.567 4.92 8.38C15.85 43.163 19.786 44 24 44s8.15-.837 11.08-2.62C38.058 39.567 40 36.755 40 33v-.751A4.249 4.249 0 0 0 35.75 28h-23.5Zm-1.75 4.249a1.75 1.75 0 0 1 1.75-1.749h23.5c.967 0 1.75.783 1.75 1.749V33c0 2.744-1.36 4.808-3.72 6.245C31.37 40.712 27.932 41.5 24 41.5c-3.932 0-7.37-.788-9.78-2.255-2.36-1.437-3.72-3.5-3.72-6.245v-.751Z" fill="#212121"/>
</svg>
